X:1
T:Title
%%score { ( 1 4 5 ) | ( 2 3 ) }
L:1/8
Q:1/4=104
M:4/4
K:Bb
V:1 treble nm="Grand Piano"
V:4 treble 
V:5 treble 
V:2 bass 
V:3 bass 
V:1
 [DF]>[EG] [DF]>[_D=E] [=DF]2 [Fd]2 | [Ec] [DB]3- [DB]2 z2 | G>^F G>[GB] [=FA]2 [EG]2 | [DF]6 z2 | %4
w: Thoro~Harris * * * * *||||
 [A,CE]>[A,DF] [A,CE]>[_A,=B,D] [=A,CE]2 [_B,D]C | D>E [B,DF]4 z2 | %6
w: ||
 [G,C=E][G,CE][G,CE][G,EG] [EB]2 [B,CE]2 | [A,CF]6 z2 | [CE]3 [EF] [Ed]>c [Ec]2 | %9
w: |||
 D3 [DF] [Dc]>B [DB]2 | [GB]BAG z[K:bass] B, z B, | z z/[K:treble] G/ [DF]4 z2 | %12
w: |||
 [CE]3 [EF] [Ed]>c [Ec]2 | D3 [DF] [Fc]>B [FB]2 | [EG][EG][Ge][EG] [Ed]2 [Ec]2 | [DB]6 z2 |] %16
w: ||||
V:2
 [B,,B,]>[B,,B,] [B,,B,]>[B,,B,] [B,,B,]2 [B,,B,]2 | [B,,F,] [B,,F,]3- [B,,F,]2 z2 | %2
 [E,B,E]>[E,B,D] [E,B,E]>[E,B,] [E,B,]2 [E,B,]2 | [B,,B,]6 z2 | %4
 [F,,F,]>[F,,F,] [F,,F,]>[F,,F,] [F,,F,]2 z A, | B,>C B,,4 z2 | C,C,C,C, [C,G,]2 C,2 | F,6 z2 | %8
 A,,C,F,C, .F,,>E F,C, | B,,F,B,F, .B,,>D B,F, | %10
 z[K:treble] [G,G][B,F][K:bass][E,E] [F,D]2 [F,C]2 | B,>E B,F, z F,B,F, | C,F,A,F, .A,,>E A,F, | %13
 B,,F,B,F, .D,>[K:treble]F B,[K:bass]F, | E,B,C,B, [F,,A,]4 | [B,,B,]6 z2 |] %16
V:3
 x8 | x8 | x8 | x8 | z4 z2 [F,,F,]2 | [B,,F,]2 z2 z4 | x8 | x8 | z4 z C, z2 | z4 z F, z2 | %10
 E,4[K:treble][K:bass] z4 | B,,4 D,4 | z4 z F, z2 | z4 z F,[K:treble] z2[K:bass] | x8 | x8 |] %16
V:4
 x8 | x8 | x8 | x8 | x8 | x8 | x8 | x8 | x8 | x8 | z4 F2[K:bass] E2 | D2[K:treble] z2 z4 | x8 | %13
 x8 | x8 | x8 |] %16
V:5
 x8 | x8 | x8 | x8 | x8 | x8 | x8 | x8 | x8 | x8 | x5[K:bass] x3 | z F,[K:treble] z2 z4 | x8 | x8 | %14
 x8 | x8 |] %16

